brandFactory_export/1.Light/Datos_1Light.svg

<?xml version="1.0" encoding="UTF-8"?>
<svg width="24px" height="24px" viewBox="0 0 24 24" version="1.1" xmlns="http://www.w3.org/2000/svg" xmlns:xlink="http://www.w3.org/1999/xlink">
    <title>1.Light/Datos_1Light</title>
    <g id="Symbols" stroke="none" stroke-width="1" fill="none" fill-rule="evenodd">
        <g id="1.Light/Datos_1Light" fill="#5CB615" fill-rule="nonzero">
            <path d="M19.7411765,8.98487395 C19.492437,9.4487395 18.7630252,10.0605042 17.4218487,10.4638655 C16.0739496,10.8672269 14.2823529,11.0857143 12.3798319,11.0857143 C10.4773109,11.0857143 8.69579832,10.8705882 7.33781513,10.4672269 C6.13109244,10.1008403 5.25714286,9.54957983 4.99159664,8.99831933 L4.99159664,4.62857143 C5.48571429,5.02184874 6.17142857,5.35798319 7.05210084,5.61680672 C8.49747899,6.05042017 10.3932773,6.28571429 12.3831933,6.28571429 C14.3731092,6.28571429 16.2689076,6.05042017 17.7142857,5.61680672 C18.5781513,5.36134454 19.2504202,5.04537815 19.7445378,4.6487395 L19.7445378,8.98487395 L19.7411765,8.98487395 Z M19.7411765,14.8067227 C19.492437,15.2705882 18.7630252,15.8823529 17.4218487,16.2857143 C16.0739496,16.6890756 14.2823529,16.9176471 12.3798319,16.9176471 C10.4773109,16.9176471 8.69579832,16.692437 7.33781513,16.2857143 C6.13109244,15.9226891 5.25714286,15.3781513 4.99159664,14.8168067 L4.99159664,10.4369748 C5.51596639,10.8201681 6.21176471,11.1563025 7.05210084,11.405042 C8.49747899,11.8386555 10.3932773,12.0773109 12.3831933,12.0773109 C14.3865546,12.0773109 16.2756303,11.8386555 17.7142857,11.405042 C18.5277311,11.1697479 19.2201681,10.8336134 19.7445378,10.4302521 L19.7445378,14.8067227 L19.7411765,14.8067227 Z M19.7411765,20.1411765 C19.7411765,20.9109244 18.9579832,21.5394958 17.4117647,22.0067227 C16.0537815,22.410084 14.2621849,22.6352941 12.3697479,22.6352941 C10.4773109,22.6352941 8.68571429,22.410084 7.31764706,22.0067227 C5.77142857,21.5428571 4.98823529,20.9109244 4.98823529,20.1411765 L4.98823529,16.2554622 C5.50252101,16.6386555 6.20840336,16.9747899 7.0487395,17.2302521 C8.49411765,17.6638655 10.389916,17.902521 12.3798319,17.902521 C14.3831933,17.902521 16.2722689,17.6672269 17.7109244,17.2302521 C18.5243697,16.994958 19.2168067,16.6487395 19.7411765,16.2453782 L19.7411765,20.1411765 Z M7.31764706,1.61680672 C8.67563025,1.21344538 10.4705882,0.988235294 12.3697479,0.988235294 C14.2689076,0.988235294 16.0638655,1.21344538 17.4117647,1.61680672 C18.7596639,2.02016807 19.5226891,2.5512605 19.6907563,3.18655462 C19.6907563,3.18655462 19.6806723,3.19663866 19.6806723,3.20672269 C19.4521008,3.78823529 18.6823529,4.29243697 17.4218487,4.66554622 C16.0638655,5.06890756 14.2823529,5.29747899 12.3798319,5.29747899 C10.4773109,5.29747899 8.69579832,5.07226891 7.33781513,4.66554622 C6.05042017,4.2789916 5.26722689,3.75798319 5.05882353,3.15630252 C5.05882353,3.14621849 5.05882353,3.14621849 5.0487395,3.13613445 C5.25714286,2.53445378 6.04033613,2.00336134 7.31764706,1.61680672 Z M17.7008403,0.668907563 C16.2554622,0.248739496 14.3630252,0 12.3731092,0 C10.3697479,0 8.47731092,0.245378151 7.04201681,0.668907563 C5.35798319,1.17310924 4.36638655,1.92268908 4.08067227,2.89747899 C4.0302521,3.08571429 4,3.28067227 4,3.4789916 L4,20.1378151 C4,21.3983193 5.02184874,22.3462185 7.04201681,22.9478992 C8.48739496,23.3815126 10.3798319,23.6168067 12.3731092,23.6168067 C14.3529412,23.6168067 16.2487395,23.3815126 17.7008403,22.9478992 C19.7142857,22.3361345 20.7327731,21.3983193 20.7327731,20.1378151 L20.7327731,3.48235294 C20.7327731,2.21848739 19.7142857,1.28403361 17.7008403,0.668907563 L17.7008403,0.668907563 Z" id="Datos_1Light"></path>
        </g>
    </g>
</svg>

<svg width="24" height="24" viewBox="0 0 24 24" xmlns="http://www.w3.org/2000/svg"><path d="M19.741 8.985c-.249.464-.978 1.076-2.32 1.479-1.347.403-3.139.622-5.041.622-1.903 0-3.684-.215-5.042-.619-1.207-.366-2.08-.917-2.346-1.469v-4.37c.494.394 1.18.73 2.06.989 1.445.433 3.341.669 5.331.669 1.99 0 3.886-.236 5.331-.67.864-.255 1.536-.57 2.03-.967v4.336h-.003zm0 5.822c-.249.464-.978 1.075-2.32 1.479-1.347.403-3.139.632-5.041.632-1.903 0-3.684-.226-5.042-.632-1.207-.363-2.08-.908-2.346-1.47v-4.379c.524.383 1.22.72 2.06.968 1.445.434 3.341.672 5.331.672 2.004 0 3.893-.238 5.331-.672.814-.235 1.506-.571 2.03-.975v4.377h-.003zm0 5.334c0 .77-.783 1.398-2.33 1.866-1.357.403-3.149.628-5.041.628-1.893 0-3.684-.225-5.052-.628-1.547-.464-2.33-1.096-2.33-1.866v-3.886c.515.384 1.22.72 2.06.975 1.446.434 3.342.673 5.332.673 2.003 0 3.892-.236 5.33-.673.814-.235 1.507-.581 2.031-.985v3.896zM7.318 1.617C8.676 1.213 10.47.988 12.37.988c1.899 0 3.694.225 5.042.629 1.348.403 2.11.934 2.279 1.57 0 0-.01.01-.01.02-.229.581-.999 1.085-2.26 1.459-1.357.403-3.139.631-5.041.631-1.903 0-3.684-.225-5.042-.631-1.288-.387-2.07-.908-2.28-1.51 0-.01 0-.01-.01-.02.21-.602.992-1.133 2.27-1.52zM17.7.669C16.255.249 14.363 0 12.373 0 10.37 0 8.477.245 7.042.669c-1.684.504-2.676 1.254-2.961 2.228-.05.189-.081.384-.081.582v16.659c0 1.26 1.022 2.208 3.042 2.81 1.445.434 3.338.669 5.331.669 1.98 0 3.876-.235 5.328-.67 2.013-.61 3.032-1.549 3.032-2.81V3.483c0-1.264-1.019-2.198-3.032-2.813z" fill="#5CB615" fill-rule="nonzero"/></svg>
